X:25
T: Dahaam bo meiner Mutter, do rumplt alles um und um
N: V0005C
O: Europa, Mitteleuropa, Deutschland, Ober - Franken, Grafengehaig
R: Geselligkeits - Lied, Scherz
M: 2/4
L: 1/8
K: Bb
B | Bcdg | f2d
d | feee | gff
B | Bdeg | f2d
d | feec | B2z

